X:271
T:The sailor's bonnet
R:Reel
O:Ireland
D:Michael Coleman ?
D:Davy Spillane: Shadow Hunter ?
D:Bothy Band: 1975 ?
B:Irish Traditional Music Session Tunes 2 n5
S:My arrangement from various sources
Z:Transcription, arrangement, chords:Mike Long
M:C|
L:1/8
K:D
"D"~A2FA df~f2|"D"dfef "G"dBB2|"D"~A2FA dffe|"G"dBAF "D"ADD2:|\
|:"D"fa~a2 afdf|"D"afef "G"dBB2|
"Bm"fb~b2 bafa|"G"bfaf "A"fee2|\
"Bm"bf~f2 "D"af~f2|"D"afef "G"dBB2|"D"~A2FA dffe|"G"dBAF "D"ADD2|]
